X: 935
T: All Along The River Bank
R: polka
M: 2/4
K: Amixolydian
ec BA|c2B2|d>c dc|B3c/d/|
ec BA|c2B2|de/d/ cB|A2A2:|
ce ef|e3d|ce fe|fb ba|
ce ef|e3c|dc BA|A2A2:|

